X: 18002
T: Hughie Travers'
R: reel
M: 4/4
K: Adorian
A2 dA eAdA|AdBG AGEG|A2 dA eAde|gedB GBdB|
A2 dA eAdA|A2 BG AGEG|c3A B3A|1 GBAG EFG^G:|2 GBAG EFGA||
Bdef gedB|GBAB GE D2|Bdef g3 g|agef gfed|
(3Bcd ef gedB|GBAB GE D2|cBcA B3A|1 GBAG EFGA:|2 GBAG EFG^G||

